X:97
T:97 Lieber Augustine
C:Shoosmith MS
I:abc2nwc
M:3/8
L:1/16
K:D
a2abag|f2d2d2|e2A2A2|f2d2d2|a2abag|f2d2d2|e2A2A2|d6|
a2abag|f2d2d2|e2A2A2|f2d2d2|a2abag|f2d2d2|e2A2A2|d6||
e2A2A2|f2d2d2|e2A2A2|f2d2d2|a2abag|f2d2d2|e2A2A2|d6|
e2A2A2|f2d2d2|e2A2A2|f2d2d2|a2abag|f2d2d2|e2A2A2|d6|]

